X:1
T:Flute Sonata in b-minor, TWV 41:h4,für Flöte mit Generalbaß, Tafelmusik 1733,I Nr.5
T:Sonate h-moll, TWV 41:h4
T:für Flöte mit Generalbaß, aus " Tafelmusik 1733,I Nr.5 " Transcribed for 2 Recorders and Continuo in d-moll from IMSLP#277242 PDF File
T: Georg Philipp Telemann (1681 — 1767) Continuo realization : Max Seiffert (1868-1948)
T:Public Domain - Non-PD US
T:Public Domain - Non-PD US
T:Public Domain - Non-PD US
T:Public Domain - Non-PD US
T:Public Domain - Non-PD US
T:Public Domain - Non-PD US
T:Public Domain - Non-PD US
C:Georg Philipp Telemann (1681 — 1767)
Z:Leipzig: Breitkopf und Härtel, 1928. Plate 29675.
Z:Public Domain - Non-PD US
%%score [ 1 2 ] { ( 3 4 6 ) | 5 }
L:1/8
Q:1/4=100
M:6/4
K:F
V:1 treble nm="Alto Rec." snm="A."
V:2 bass+8 nm="Bass Rec." snm="B."
V:3 treble nm="Harpsichord" snm="Hch."
V:4 treble 
V:6 treble 
V:5 bass 
V:1
"^1. Cantabile" z12 | z12 | z12 | z12 | z12 | z8 defg | a6- a6- | a2 (gfed) T^c4 z2 | z12 | z12 | %10
 .d !tenuto!f2 e(d^c) .d !tenuto!f2 e(dc) | .d(agfed) T^c2 z b(ag) | %12
 (^f/g/a) d d'2 c'- c'(b/a/) (g/a/b/c'/ d')=f | e/f/g c c'2 b- ba/g/ f/g/a/b/ c'c | %14
 db (Tb/a/b) gb ec' (Tc'/=b/c') ac' | f4 z2 (d'c')(ba)(gf) | Te3 b(ag) (ad) Te4- | %17
 e.a(f^c) d2- d(e/f/) (e=B) (=c/e/d/c/) | (fe)(dc)(=BA) T^g3 e d'(c'/=b/) | (c'a) T^g3 a a4 z2 | %20
 z12 | .f !tenuto!a2 .g(fe) f !tenuto!a2 .g(fe) | f.c'(babg) (ag f2) z2 | %23
 .g !tenuto!b2 .a(g^f) .g !tenuto!b2 .a(gf) | g.d'(^fc'ba) (bag)abc' | d'2 T=b3- a/b/ c'2 c2 z2 | %26
 c'2 Ta3- g/a/ b2 B2 z2 | (b/c'/)d' gd'fd' (e/f/g/).c'/ (d/e/f/).=b/ !breath!Tc2 | %28
 (a/b/)c' fc'_ec' (d/e/f/).b/ (c/d/e/).a/ !breath!TB2 | (g/a/)b ebdb (^c/d/)e .A !tenuto!a2 g- | %30
 g(f/e/) (d/e/f/g/ a)^f g6- | ga(Tfe) f3 g Te3 d | d4 z2 _e>.^c (c3 d) | %33
 !tenuto!b>.^c (c3 d) d'2 (Tb3 a/b/) | a6- a2 f/e/f .d.b | a6- a2 (f/e/)f d.a | %36
 (d'c')(ba)(g^f) (ba)(g=f)(ed) | !wedge!g2 !wedge!g2 !wedge!g2{ga} b3 (a/g/)fe | %38
 !wedge!d'!wedge!d (Te4 Pd6) |][M:2/4]"^Allegro" (d/f/) !tenuto!a2 b Tg(f/e/) (f/a/)(g/b/) | %40
 (d/f/) !tenuto!a2 b Tgf z g | Te(d/^c/) (d/e/)(f/d/) (f/e/)(d/c/) d/e/f/d/ | %42
 .g2 .f2 (e/f/)(^c/d/) TA2 | (d/e/)(^c/d/) TA2 (e/f/e/)A/ (f/g/f/)d/ | %44
 (g/4f/4e3/2) (f/4e/4d3/2){d} e2 z f/e/ | fc c(d/e/) (f/g/) a2 (f/e/) | %46
 (f/g/)(a/b/) c'b (Ta/g/)f z a | (b/a/b/)d'/ b/a/g/f/ (e/d/e/)g/ f/e/d/c/ | %48
 (a/g/a/)c'/ a/g/f/_e/ (d/c/d/)f/ e/d/c/B/ | (e/4d/4c/) g2 B (A/4G/4F/) f2 c' | %50
 (e/4d/4c/) g2 B (A/4G/4F/)(B/F/) c/F/d/F/ | (e/4d/4c/)(f/c/) g/c/a/c/ (b/c'/) !tenuto!d'2 c' | %52
 Ta(g/f/) ce z/ f/e/f/ c/f/A/c/ | F/f/e/f/ d/f/B/d/ F/f/e/f/ c/f/A/c/ | %54
 F(G/A/) B/c/d/e/ f/g/a/b/ c'/b/c'/d'/ | (e/d/)c/d/ e/f/g/a/ (b/c'/) d'2 c' | Ta(g/f/) ce .f.F z2 | %57
 (f/a/) !tenuto!c'2 d' Tb(a/g/) (a/c'/)(b/d'/) | (f/a/) !tenuto!c'2 d' Tba z b | %59
 Tg(f/e/) (f/g/)(a/f/) (a/g/)(f/e/) f/g/a/f/ | !wedge!b2 !wedge!a2 (g/a/)(e/f/) Tc2 | %61
 (f/g/)(e/f/) Tc2 (g/a/g/)c/ (a/b/a/)c/ | (b<g) (a<f) (fg) z (c'/=b/) | %63
 c'/^f/g/a/ d/a/g/f/ c'/d'/ _e'2 (c'/=b/) | c'/^f/g/a/ d/c'/b/a/ (b/a/)g z a | %65
 !wedge!^g/(e/f/=g/) fe !wedge!=b/(e/f/g/) fe | d'/(=b/c'/d'/) e/(d'/c'/b/) (c'/b/)a z e' | %67
 f'(a/^g/) (a/g/)a e'(a/g/) (a/g/)a | !wedge!d'!wedge!d'!wedge!d'!wedge!d' Te2 T^g2 | %69
 T=b2 !wedge!d2 z e/f/ ed | (c/e/a/)a/ (d/f/a/)a/ ce/f/ ed | (c/e/a/)a/ (d/f/a/)a/ (e/a/) c'2 =b | %72
 ea=BT^g a2 z/ ^f/=g/a/ | dgAT^f g2 z/ e/=f/g/ | cfGTe f2- f/g/a/b/ | Te2- e/f/g/a/ d2- d/e/f/g/ | %76
 (a/g/)(b/a/) (g/f/)(e/d/) T^c2 z2 | (d/f/) a2 b Tg(f/e/) (f/a/)(g/b/) | (d/f/) a2 b Tgf z g | %79
 Te(d/^c/) (d/e/)(f/d/) (f/e/)(d/c/) d/e/f/d/ | g2 f2 (e/f/)(^c/d/) TA2 | %81
 (d/e/)(^c/d/) TA2 (e/f/e/)A/ (f/g/f/)A/ | (g<e) (f<d) ef/g/ ad'/^c'/ | %83
 d'd/e/ Te2- ef/g/ ad'/^c'/ | d'd/e/ Te2 d2 z/ ^c'/b/a/ | %85
 (g/b/d'/)d'/ (f/g/d'/)d'/ (e/g/)c' z/ b/a/g/ | (f/a/c'/).c'/ (e/f/c'/).c'/ (d/f/).b z/ a/g/f/ | %87
 e/(b/a/^g/ a/)=g/f/e/ d/(a/g/^f/ g/)=f/e/d/ | d'(d/^c/) (d/c/)d a(d/c/) (d/c/)d | %89
 !wedge!g!wedge!g!wedge!g!wedge!g TA2 T^c2 | Te2 !wedge!g2 z (a/b/) ag | %91
 (f/4e/4d/)(g/d/) a/d/b/d/ (f/4e/4d/)(g/d/) a/d/b/d/ | d'c'/b/ ag f2 Te2 | %93
 (f/4e/4d/)(g/d/) a/d/b/d/ d'c'/b/ ag | f2 Te2 d2 z2 |][M:6/8]"^Dolce"[Q:3/8=48] z fg (ab)c' | %96
 z (TB3/2A/4B/4) A/f/ (TB3/2A/4B/4) | Afg (ab)c' | z (b/g/)(a/f/) g!wedge!c!wedge!c | %99
 c(b/g/)(a/f/) (g/e/)(f/g/)c | z c'2- c'A/c'/G/c'/ | (^F/A/c/_e/) (d/^f/a/c'/){/c'} Tb>a | %102
 (b/^f/g/)d/G z d'2- | d'=B/d'/A/d'/ (^G/B/d/f/) (e/^g/ | =b/d'/){/d'} Tc'>b c'/^g/a/e/A | %105
 z f2- f/(=b/c'/d'/)e- | e/(a/=b/c'/)d- d/(g/e/=B/)c | z c'd' (e'f')g' | %108
 z (.Tf3/2e/4f/4) e/.c'/ (.Tf3/2e/4f/4) | ec'd' (e'f')g' | z (f'/d'/)(e'/c'/) d'!wedge!g!wedge!g | %111
 !wedge!g(f'/d'/)(e'/c'/) d'!wedge!=b!wedge!c' | z/ f<Tdc/ c2 z | z3 (g/4f/4g/) c/g/c'/b/ | %114
 (a/g/)f z z3 | (_e/4d/4e/)F/c/f/e/ d/c/B/d/f- | f/a/b/d/_e- e/c'/a/f/d- | %117
 d/(g/4f/4) _e/d/c/B/ A/=e/{/e} f>c' | B/f/{/f} (!>!fe/>).b/ A/e/{/e} (!>!ef/>).c'/ | %119
 (_e/d/e/d/e/)!wedge!e/ _e'>c'd' | z/ g<Tab/ bd'c' | bag z (Tf3/2e/4f/4) | %122
 e/.c'/ (Tf3/2e/4f/4) egf | (ed)c z (TB3/2A/4B/4) | A/.f/ (TB3/2A/4B/4) Afg | %125
 (ab)c' z (b/g/)(a/f/) | g!wedge!c!wedge!c !wedge!c(b/g/)(a/f/) | (g/e/)(f/g/)c z f2- | %128
 f/c'/F/a/G/b/ A/c'/F/a/G/b/ | A/c'/G/b/A/c'/ B/(c'/d'/a/)B | z g2- g/d'/G/=b/A/c'/ | %131
 =B/d'/G/=b/A/c'/ B/d'/A/c'/B/d'/ | c/(f'/e'/=b/)c z (e'/c'/)(d'/e'/) | f' Tc'2 d'b/g/a/b/ | %134
 c' Tg2 a(c'/a/)(b/g/) | (a/b/4c'/4) (b/g/)(a/f/) g/c/d/e/f- | f/b<Tgf/ f/(a/4g/4) f/e/d/c/ | %137
 (=B/A/)G z z3 | (d'/4c'/4d'/)g/=b/d'/f/ e/d/c/g/c'- | c'/e'/f'/a/b- b/g/e/c/a- | %140
 a/(b/4a/4)g/f/e/d/ c/.=b/ (bc'/>).e/ | f/.c'/ (c'=b/>).f/ e/.b/ (bc'/>).c/ | %142
 (b/a/)(b/a/)(b/a/) b>ga- | a/f<.ef/ f3 |][M:6/8]"^3. Allegro"[Q:3/8=120] (def) (fga) (aba) | %145
 (!>!a g2) (!>!b g2) (!>!d' g2) | (cde) (efg) (gag) | (!>!g f2) (!>!a f2) (!>!c' f2) | %148
 (ba)!wedge!g{g} !>!a3- a2 d' | (gf)!wedge!e{e} !>!f3- f2 d' | (ed)!wedge!e (A^c)e (gf)e | %151
 (fe)f (df)a (fe)d | (ed)e (A^c)e (gf)e | (fe)f Td3 z (d'c') | (=bc')d' (d^f)g G2 =f | %155
 e(cd efg) .c(c'b) | (ab)c' (ce)f F2 _e | d(Bc d_ef) .B(ba) | .g Tg2 .a Ta2 .b Tb2 | %159
 (ef/e/d/c/) !>!c'6 | (ab/a/g/f/) !>!c'6 | (ef/e/d/c/) !>!c'3- c'2 b | .a Ta2 .b Tb2 .c' Tc'2 | %163
 !wedge!d'(b/c'/d') !wedge!b(g/a/b) !wedge!g(e/f/g) | (ce)g B3- (BA)G | %165
 (AB/A/G/F/) (cd/c/B/A/) (fg/f/e/d/) | (ec)f A2 f G2 e | z3 f6- | f(_ag) (agf agf) | %169
 (=Bfg) (_agf agf) | !wedge!e(c/d/e) !wedge!g(e/f/g) !wedge!b(g/a/b) | (ce)!wedge!g d'3- (d'c')b | %172
 (agf) (cef) G2 e' | (f'c')a f3 z2 z :: (fga) (abc') (c'd'c') | (c' a2) (a ^f2) (f d2) | %176
 !wedge!_e(c/d/e) !wedge!a(c/d/e) (^FA)c | !wedge!B(GA Bcd) G2 g | (^fg).b (ag).c' (gf).d' | %179
 (^fg).b (ag).c' (gf).d' | (^c'd').a (ab).^f (fg)._e | (_e3 d2) c' (bc')a | (ba)g T^f3- f2 d' | %183
 (f3 e2) d' (c'd')=b | (c'=b)a ^g3- g2 a | (fa)f (ea)e (da)d | c Tc2 d Td2 e Te2 | %187
 (fa)f (ea)e (da)d | c(ed c=BA) B2 ^g | (ae)c A3 z3 | (def) (fga) (aba) | (a g2) (b g2) (d' g2) | %192
 (cde) (efg) (gag) | (g f2) (a f2) (c' f2) | (ba)!wedge!g{g} a3- a2 d' | %195
 (gf)!wedge!e{e} f3- f2 d' | (ed)!wedge!e (A^c)e (gf)e | (fe)f (df)a (fe)d | (ed)e (A^c)e (gf)e | %199
 (fe)f Td3 z2 e | !wedge!f(a/g/f) !wedge!e(g/f/e) !wedge!d(f/e/d) | b Tb2 a Ta2 g Tg2 | %202
 !wedge!f(a/g/f) !wedge!e(g/f/e) !wedge!d(f/e/d) | (^cd/e/f/g/) a6 | (fg/f/e/d/) a6 | %205
 (^cd/e/f/g/) (a3- ag)^f | (^fg)e (e=f)^c (cd)B | (B3 A2) g (fg)e | (fe)d (^cd)e A2 c | z3 d6- | %210
 (dga) (bag bag) | (^cga) (bag bag) | !wedge!d'(b/c'/d') !wedge!b(g/a/b) !wedge!g(e/f/g) | %213
 (A^c)e b3- (ba)g | !wedge!f(ag fed) A2 ^c' |1 (d'a)f d3 z3 :|2 (d'a)f d3 z3 |] %217
V:2
 D .F2 E(D^C) D .F2 E(DC) | !wedge!D2 !wedge!A,2 !wedge!B,2 A,4 z2 | %2
 (^F,/G,/)A, D,DD,C (B,/A,/)B, G,D,B,,G,, | E,/F,/G, C,CC,B, A,/G,/A, F,C,A,,F,, | %4
 (B,A,)(G,F,)(E,D,) T^C,3 ^C D2 | G,2 A,2 A,,2 D,4 z2 | D F2 E(D^C) D F2 E(DC) | %7
 !wedge!D2 !wedge!A,2 !wedge!B,2 A,4 z2 | ^F,/G,/A, D,DD,C B,/A,/B, G,D,B,,G,, | %9
 (E,/F,/)G, C,CC,B, (A,/G,/)A, F,C,A,,F,, | B,2 G,2 A,2 F,2 D,2 E,2 | F,4 G,2 (.A,2 .A,,2) ^C2 | %12
 D2 z2 ^F,2 G,4 z2 | C2 z2 E,2 F,4 z2 | (B,2 G,2) G,2 (C2 A,2) A,2 | %15
 (DC)(B,A,)(G,F,) (B,A,)(G,F,)(E,D,) | C,2 C2 F2 B,2 C2 C,2 | F,2 z2 F2 ^G,4 A,2 | %18
 D,2 E,2 F,2 E,4 ^G,2 | A,2 (.E2 .E,2) A,,4 z2 | F, !tenuto!A,2 G,(F,E,) F, !tenuto!A,2 G,(F,E,) | %21
 F,2 F,2 G,2 A,2 F,2 G,2 | A,2 (G,2 C2) F,3 G,A,F, | B,2 G,2 A,2 B,2 G,2 A,2 | %24
 B,2 (A,2 D2) G,4 z2 | (=B,/C/)D G,GG,F (E/D/)E CG,E,C, | A,/B,/C F,FF,_E D/C/D B,F,D,B,, | %27
 G,2 B,2 G,2 C2 z2 E2 | (F,2 A,2) F,2 B,2 z2 D2 | E,2 G,2 E,2 A,2 ^C2 A,2 | %30
 (D2 D,2) C,2 B,,.B, (B,/A,/)B, G,B, | A,3 ^C D2 G,2 A,2 A,,2 | D,.F, (F,/E,/)F, D,F, G,2 z2 F,2 | %33
 G,2 z2 F,2 (B,A,)(G,F,)(E,D,) | (^C,/D,/)E, A,,A,A,,G, (F,/E,/)F, D,A,F,D, | %35
 (^C,/D,/)E, A,,A,A,,G, (F,/E,/)F, D,A,F,D, | z2 (DC)(B,A,) (G,^F,) (B,A,)(G,=F,) | %37
 (E,G,)(B,G,)(E,G,) A,,3 ^CDE | F,2 G,2 A,2 D,6 |][M:2/4] D_EFD B,CA,_E, | F,FDB, CF,/G,/ A,B, | %41
 G,E F,D G,E F,D | ^CA,DD, A,2 z G, | F,2 z F ^C^C,D,D | E^CDD, A,,(A,/G,/) (A,/B,/A,/).G,/ | %45
 F,G,A,B, A,F/E/ FA,/G,/ | A,F,E,C, F,F/E/ FD | (.G.G,) z G, (.C.C,) z E | %48
 (.F.F,) z A, (.B,.B,,) z D | C(C,/D,/) E,C, z (A,/G,/) A,F, | z E,/D,/ E,C, F,G,A,B, | %51
 CDEF GFEE, | F,B,CC, F,2 z2 | D,2 z2 A,,2 z2 | D,C,B,,B, A,(F,/G,/) A,B, | C,CB,A, G,F,E,E | %56
 FB,CC, F,2 (.F,.G,) | A,G,A,F, G,C,F,G, | A,G,A,F, E,F,/E,/ F,D | B,GA,F B,GA,F | G,EFF, C2 z B, | %61
 A,2 z F, E,EFF, | E,C,F,F,, C,(C/=B,/) C(A,/G,/) | ^F,2 z2 F,F,/G,/ A,G, | ^F,D,F,D, G,2 G,=F, | %65
 E,2 z2 E,2 z2 | E,2 z ^G, A,C/=B,/ CA, | D2 z D C2 z C | =B,D/C/ B,A, ^G,E,E,E, | %69
 z E,E,E, E,2 z ^G, | A,2 z2 A,C/D/ C=B, | A,2 z =B, CA,ED | CC,D,E, A,C/A,/ DC | %73
 B,B,,C,D, G,B,/G,/ CB, | A,DB,C A,F,B,G, | CC,CF, B,B,, B,A,/G,/ | F,D,^C,D, A,A,,A,G, | %77
 F,F/E/ FD B,CA,E, | F,FDB, CF,/G,/ A,B, | G,EF,D G,EF,D | ^CA,DD, A,2 z G, | F,2 z D ^C^C,D,D | %82
 E^CDD, A,G,F,E, | F,B,G,A, F,2 z E, | F,B,G,A, D,E,^F,D | B,G, z =B, C,D,E,C | %86
 A,F, z A, B,,C,D,D | ^CC=CC =B,B,_B,B, | F,2 z B, F,2 z F, | E,G,/F,/ E,D, ^C,A,,A,,A,, | %90
 z A,,A,,A,, A,,2 z ^C, | D,E,F,G, D,E,F,G, | F,G,A,B, A,G,A,A,, | D,E,F,G, F,G,A,B, | %94
 A,G,A,A,, D,2 z2 |][M:6/8] F,2 E, (F,G,)A, | G,2 C, F,(G,C,) | F,2 E, (F,G,)A, | G,(E,F,) C,2 D, | %99
 E,2 F, C2 z | A,2 G, ^F,2 E, | D,2 z2 DD, | G,2 z B,2 A, | G,2 F, E,2 z | z EE, A,2 z | %105
 A,A,A, G,G,G, | F,F,F, E,E,E, | A,2 =B, (CD)E | D2 G, C(DG,) | C2 =B, (CD)E | D(=B,C) G,2 A, | %111
 =B,2 C (F,G,)E, | F,(G,G,,) C,(CB,) | A,G,F,- F, E,2 | F,(F_E) DCB,- | B, A,2 B, z D, | %116
 G, z C, F, z B,, | _E,E,=E, F,F,F, | F,F,F, F,F,F, | G,(CB,) (A,F,)B, | _E,(F,F,,) B,,2 z | %121
 z3 A,(=B,G,) | C(DG,) C2 z | z3 D,(E,C,) | F,(G,C,) F,2 E, | (F,G,)A, G,(E,F,) | C,2 D, E,2 F, | %127
 C,(CB,) A,(F,G,) | A,2 z F,2 z | z z F, B,(B,/C/D/C/) | =B,(G,A,) B,2 z | G,2 z z z G, | %132
 C(C/D/E/D/) C2 B, | A,(A,/F,/G,/A,/) B,G,F, | E,(E,/C,/D,/E,/) F,(A,G,) | F,(E,F,) (CB,)A, | %136
 B,(CC,) F,3- | F,(G,F,) (E,D,)C,- | C, =B,,2 C,CA, | D z G, C z F, | %140
 B,/(D/4C/4) B,/A,/G,/F,/ (E,/D,/)C,C, | z C,C, z C,C, | G,2 F, E,EF | B,CC, F,3 |] %144
[M:6/8] D,3 D3 C3 | B,3 z3 z3 | E,3 C,3 B,3 | A,3 z3 z3 | G,3 F,3 D,3 | ^C,3 D,3 B,3 | %150
 G,3 A,3 ^C,3 | D,3 F,3 D,3 | G,3 A,3 ^C,3 | D,3- D,2 E, F,2 D, | G,3 z3 (=B,A,)G, | C3 C,3 E,3 | %156
 F,3 z3 (A,G,)F, | B,3 B,,3 D,3 | (E,D,)E, (F,E,)F, (G,F,)G, | C,3- C,2 D, (E,D,)C, | %160
 F,3- F,2 G, (A,G,)F, | C3- C2 D (ED)C | (F,E,)F, (G,F,)G, (A,G,)A, | B,3 G,3 z3 | %164
 E,3- (E,F,)G, (C,D,)E, | F,3 A,3 D3 | C2 B, C3 C,3 | (F,G,)A, (A,G,)F, (A,G,)F, | =B,,3 z3 z3 | %169
 D,3 z3 z3 | C,3 C,3 C,3 | C,2 C B,2 C D2 E | F2 B, C3 C,3 | F,3 z (A,G,) (F,G,)E, :: F,3 F3 _E3 | %175
 D3 z3 z3 | ^F,3 F,3 D,3 | G,3- G,2 G, (B,A,)G, | D3 z3 z3 | D3 z3 z3 | D3 D3 D3 | %181
 (^F,A,)G, (F,G,)A, D,2 F, | G,2 C D2 D, D2 C | (=B,C)A, (^G,A,)B, E,2 G, | A,2 D E2 D E2 E, | %185
 D3 C3 =B,3 | (A,^G,)A, (=B,A,)B, (CB,)C | D3 C3 =B,3 | A,3 z2 C, D,2 E, | A,,3 A,2 G, F,2 E, | %190
 D,3 D3 C3 | B,3 z3 z3 | E,3 C,3 B,3 | A,3 z3 z3 | G,3 F,3 D,3 | ^C,3 D,3 B,3 | G,3 A,3 ^C,3 | %197
 D,3 F,3 D,3 | G,3 A,3 ^C,3 | D,3- D,2 D ^C2 A, | D3 G,3 F,3 | (G,A,)G, (F,G,)F, (E,F,)E, | %202
 D,3 A,3 B,3 | A,3- A,2 =B, (^CB,)A, | D3- D2 E (FE)D | A,3- A,2 G, (^F,E,)D, | %206
 B,2 G, A,2 G, F,2 G, | (^C,E,)D, (C,D,)E, A,,2 C, | D,2 G, A,2 G, A,2 A,, | %209
 (D,E,)F, (F,E,)D, (F,E,)D, | B,3 G,3 z3 | E,3 ^C,3 z3 | D,3 E,3 D,3 | ^C,3- (C,D,)E, A,,2 ^C | %214
 D2 G, A,3 A,,3 |1 D,3 z (DC) (B,A,)G, :|2 D,6 z3 |] %217
V:3
 [FA] .[Ad]2 [G^c]([Fd][Ee]) [FA] .[Ad]2 [Gc]([Fd][Ee]) | %1
 !wedge![FA]2 !wedge![EA^c]2 !wedge![DGd]2 T[EAc]4 z2 | [Ad][=c^f] baMgf !wedge![dg]2 d4 | %3
 [Gc][Be] agM=fe !wedge![cf]2 c3 f | ([Gdg][Acf])([Be][Ad])([G^c][FBd]) [EAe]3 [EA] fe | %5
 [GB]2 T^c3 d [FAd]4 z2 | [FA] !tenuto![Ad]2 [G^c]([Fd][Ee]) [FA] !tenuto![Ad]2 [Gc]([Fd][Ee]) | %7
 !wedge![FA]2 [FA^c]2 [DGd]2 [EAc]4 z2 | [Ad][=c^f] faba !wedge![dg]2 d4 | %9
 [Gc][Be]egag !wedge![cf]2 (c3 f) | [FBd]2 [GBd]2 [EA^c]2 [DAd]2 [FA]2 [GAc]2 | %11
 [FAd]4 [EBd]2 [EA^c]4 [EAe]2 | [^FAd]2 z2 [=cda]2 ([ca]2 [Bg]2) z2 | %13
 [Gce]2 z2 [Bcg]2 [Bg]2 [Af]2 z2 | [Bd]4 [GBd]2 [ce]4 [Ace]2 | [Adf]6 [Bdf]6 | %16
 [Beg]4 [A-cf-]2 [df]2 [Gce]4 | [Acf]2 z2 [Ad]2 [=Bde]4 [Ace]2 | %18
 ([Adf]2 [^G=Be]2) [Ad]2 [GBe]4 (e=b) | (a^f) [=Be^g]4 [cea]4 z2 | %20
 [Ac] !tenuto![cf]2 [_Be]([Af][Gg]) [Ac] !tenuto![cf]2 [Be]([Af][Gg]) | %21
 [Acf]2 [Ac]2 [GBe]2 [Fcf]2 [Ac]2 [GBe]2 | [Fcf]2 (f2 e2) [Acf]3 [Be] [cf]2 | %23
 [Gdg]2 [Bd]2 [Ac^f]2 [Gdg]2 [Bd]2 [Acf]2 | [Gdg]2 [Ac^f]4 [Bdg]4 z2 | %25
 G2 =B2 [Bd]2 (g/f/)g [Gce]4 | F2 A2 [Ac]2 (f/_e/)f [FBd]4 | %27
 ([Bd]2 [dg]2) [G=Bf]2 [Gc=e]2 z2 [Gc]2 | F2 [cf]2 [FA_e]2 [FBd]2 z2 [FBd]2 | %29
 [GBd]2 [EB=e]2 [GBd]2 [EA^c]2 [EAe]2 [GAc]2 | ([G^c]2 [Fd]2) [^FAd]2 [DGd].G (G/F/)G Bd | %31
 [EG^c]3 [EA] d4 [EAc]4 | [FAd].[DA] (A/G/)A Ad [_EB_e]2 z2 [Ad]2 | [GBd]2 z2 [Ad]2 [Bd]4 [GB=e]2 | %34
 (e/d/)^c [Ac]2 [Ace]2 (d/c/)d [Adf]2 [Ad]2 | (e/d/)^c [Ac]2 [Ace]2 (d/c/)d [Adf]2 .a.f | %36
 z2 [FB]2 d2 (BA) [Gd]2 d2 | !wedge![GBd]2 !wedge![GBd]2 !wedge![GBd]2 [GA^c]3 [GAe] [FAd][Gc] | %38
 !wedge![FAd]2 !wedge![Bd]2 !wedge![A^c]2 [FAd]6 |][M:2/4] [Adf][G^ce][Ad][FBf] de [F=cf][G^c] | %40
 [Ad]2 [df]2 .[Be] !tenuto![Af]2 [Gd] | e^c [Ad]2 ec [Ad]2 | e^c d=B [EAc]2 z [EAc] | %43
 [DAd]2 z [Ad] [GAe]2 [FAd]2 | ^c[Ae] [FAd]2 [EAc]2 e2 | [Acf][Be] f2 [cf] c2 ([cf]/[Be]/) | %46
 f2 ge[Acf] (A/G/)A[Ad^f] | [Bdg]2 z [G=Bd] [Gce]2 z [Gcg] | [Acf]2 z [Fc] [F_Bd]2 z [FBf] | %49
 [GBe] (e/f/) g[Bce] z (c/B/c)[Acf] | z (g/f/g) [Bce] [cf]2 f2 | ef [Ag][Af] [Bd]2 g2 | %52
 f2 fe [Acf]2 z2 | [FBf]2 z2 [Fc]2 z2 | [FB][_EAc] [FBd]2 [Fc] [Acf]2 [Gdf] | %55
 [Gc=e]3 [Ac^f] [Bdg]2 g2 | =f2 fe [Acf]2 [Ac]2 | [cf]e f2 [df][ce] [cf]2 | %58
 [cf][Be] f2 [Bg] !tenuto![Af]2 [FB] | [Gd][Be] [cf]2 [Gd][Be] [cf]2 | [Bg]2 gf [Gce]2 z [Gce] | %61
 [Fcf]2 z [Acf] [Gcg]2 [Acf]2 | ge [Acf]2 [Gce] [ceg]2 [c_ea] | [cda]2 z2 a(a/g/) ^fg | %64
 a^faf [Bdg]2 BA | !wedge![G_Be]2 z2 [GBe]2 z2 | [=Bd^g]2 z [de=b][cea] (e/d/)e[Ace] | %67
 [Adf]2 z [Adf] [Ae]2 z [Aea] | [=Bdf](f/e/) d[Bdf] [Be][Be^g][Beg][Beg] | %69
 z [=Bd^g][Bdg][Bdg] [Bdg]2 z [de=b] | [cea]2 z2 [cea] [Ae]2 [=Bd^g] | %71
 [cea]2 z [da] [ea]2 [ca][=B^g] | [ea]e [Af][^Ge] c(e/c/) [^FAd]2 | %73
 [Gd]2 [G_e][^Fd] G[=FG] [=EGc]2 | cd [Fd][Ec] [Fc]2 [Bd]2 | [Gce]3 [Acf] [FBcd]3 [GBd] | %76
 [Ad]2 [Ge][Fd] [EA^c]4 | [DAd] (A/G/) A[FB] d[=ce] [Fcf][G^c] | [Ad]2 [df]2 [Be] [Af]2 [Gdf] | %79
 [Be]^c [Ad]2 [Be][Gc] [Ad]2 | e^c d=B [EAc]2 z [EAc] | [DAd]2 z [FAd] [EAe]2 [FAd]2 | %82
 ^c[Ae] [FAd]2 [EAc]2 [Ad][Gc] | [Fd]2 [Bd][A^c] ([Ec][Fd]) z [Gcg] | [df]2 e2 fg d2 | %85
 [dg]2 z [Gdf] [Gc]2 [Bg][Ge] | [cf]2 z [Fc_e] [FB]2 [FBf]2 | %87
 [GB=e][GBe] [EAe][EAe] [FAd][FAd] [DGd][DGd] | [FAd]2 z [FBd] [FAd]2 z [FAd] | %89
 [GBe] (B/A/) G[GBe] [EAe][EA^c][EAc][EAc] | z [EA^c][EAc][EAc] [EAc]2 z [GAe] | d2 d2 d2 d2 | %92
 d2 [EA^c][DGd] [FAd]2 [EAc]2 | d2 d2 d2 [EA^c][DGd] | [FAd]2 [EA^c]2 [FAd]2 z2 |] %95
[M:6/8] [Acf]2 [Gcg] [Acf]2 [Fc] | [FBd]2 [GBe] [Acf] [Bf][ce] | [Acf]2 [Gcg] [Acf]2 [cf] | %98
 [Bdg][Bg][Af] [Gce]2 [Gcf] | [Gcg]2 !wedge![Acf] [Gce]2 z | [Ace]2 [Ace] [Acd]2 [Gce] | %101
 [Ac^f]2 z2 [Bdg][Af] | [Bdg]2 z [Gd]2 [Ac^f] | [=Bdg]2 [Ada] [Bd^g]2 z | z a[=B^g] [cea]2 z | %105
 [cea][=cf][cf] [=Bf][Bf][Be] | [Ae][Ae][Ada] [=Bdg][Bdg][Gcg] | [Ace]2 [Gdg] [Gce]2 [Gc] | %108
 [FAc]2 [F=Bd] [Gce] f2 | [Gce]2 [Gdg] ([Gce][F=Bd])[Gc] | [FAd]([Fd][Ec]) [DG=B]2 [DGc] | %111
 [DGd]2 [EGc] ([Ac][G=B])[EGc] | [DAc] [DG=B]2 [EGc] T[Gce]2 | [cf]2 [Acf] .[Bdg] [Gcg]2 | %114
 [Acf] [Ac]2 [FB]2 [FBd] | [Gc_e] [Fcf]2 [FBd] z [FBf] | [GBf] z [Gc_e] [FAe] z [FBd] | %117
 [GBd][GBd][GBc] [FAc][FAc][FAc] | [GBe][GBe][GBe] [Acf][Acf][Acf] | [B_e] [Gce]2 [Bdf]2 [Bd] | %120
 [Bcg] fe [FBd]2 z | z3 [Gc] (d=B) | [EGc] (c[=Bd]) [Gce]2 z | z3 [cf] ge | %124
 [Acf] ([Bf][ce]) [Acf]2 [Gcg] | [Acf]2 [cf] [Bdg](g[Af]) | [Gce]2 [Gcf] [Gcg]2 [Acf] | %127
 [Gce] [EGc]2 [Fc] ([FA]B) | [Fc]2 z [FAc]2 z | z2 [FAc] d(d/e/f/e/) | [Gd](=Bc) [Gd]2 z | %131
 [G=Bd]2 z2 z [GBd] | e (e/f/g/f/) e2 [Gce] | [Fcf] (c/A/B/c/) [FBd] [GBd]2 | %134
 [Gcg] (g/e/f/g/) [Acf]([Fc][GBe]) | [Acf][Bg][Af] [Gce]2 [Acf-] | [Gdf] [Gce]2 [Acf]3 | %137
 .[=Bdg] T[GBd]2{cd} (cd) [Gce] | .[Adf] [Gdg]2 [Gce]2 [Ace] | [Acf] z [Bdg] [Bce] z !wedge![Acf] | %140
 [ABd] [GBd]2 (g/f/e)[Gce] | z [F=Bd][FBd] z [Gce][Gce] | [G_Bd]2 [Bdg] [Bcg]2 [A-cf-] | %143
 [Adf] [Gce]2 [Acf]3 |][M:6/8] [FA]3 [FAd]3 [EAe]3 | d6 z3 | [Gc]3 [Gce]3 [Gdg]3 | (g3 e3) z3 | %148
 [Bdg]3 e3 f3 | [GAe]3 A3 B3 | [EBd]3 [EA^c]3 [GAe]3 | [FAd]3 [DA]3 [FAd]3 | %152
 [EBd]3 [EA^c]3 [GAe]3 | d3- d3 [Ad]2 [Adf] | [=Bdg]3 z3 [Gd]2 [FGB] | [EGc]3 [Gce]3 [Gcg]3 | %156
 [Adg]3 z3 [Gd]2 [_EFA] | [DFB]3 [FBd]3 [FBf]3 | [Bcg]3 [Acf]3 [GBd]3 | [GBe-]3 e2 f (gf)e | %160
 [Acf]3 [F-Ac-]3 [Fc]2 [Acf] | e3- e2 f (gf)e | [Acf]3 [Bf]3 [Bf]3 | [Bdf]3 [Bdg]3 z3 | %164
 [Gdg-]3 (gf)e (ef)g | [Acf]3 [Fc]3 [F=B]3 | [Ec]2 [Fd] [FAc]3 [Gce]3 | [Acf]3 (cB)A (cB)A | %168
 [FAd]3 z3 z3 | [F_A=B]3 z3 z3 | [EGc]3 [EGc]3 [EGc]3 | [EGc]3 [FAd]3 [FA]2 [GAc] | %172
 !wedge![Gc]2 [FGd] !wedge![FAc]3 [Gce]3 | [Acf]3 z (cA) [FA]3 :: [FAc]3 [Acf]3 [Gcg]3 | %175
 [Adg]3 z3 z3 | [c_ea]3 [cea]3 [cd^f]3 | ([Bdg-]3 [Bdg]2) [Bd] [Gd]2 [Bdg] | [Ad^f]3 z3 z3 | %179
 [Ad^f]3 z3 z3 | [Ad^f]3 [Adf]3 [Adf]3 | [_ea-]3 ag^f f2 a | [Bdg]2 [Gc_e] [^FAd]3 [DFA]3 | %183
 [DG]2 [CA] [=B,E=B]2 [DA] [EA]2 [Ec] | [EAd]2 [FAd] =B3 B2 e | [FAd]3 [EA]3 [DA=B]3 | %186
 [EAd]3 [EAd]3 [EAe]3 | [GAd]3 [EA]3 [DA=B]3 | [EAd]3 z2 [EA] [FAB]2 [E^GB] | %189
 [EAd]3 c2 ^c [Ad]2 [GAc] | [FAd]6 [EAe]3 | d6 z3 | [Gc]3 [Gce]3 [Gdg]3 | (g3 f3) z3 | %194
 [Bdg]3 d3 f3 | [GAe]3 A3 B3 | [EBd]3 [EA^c]3 [GAe]3 | [FAd]3 [DA]3 [FAe]3 | %198
 [EBd]3 [EA^c]3 [GAe]3 | d3- d2 [FA] A=B[A^c] | [FAd]3 [G_Be]3 [Ad]3 | [GBd]3 [Ad]3 [GA^c]3 | %202
 [FAd]3 [EA^c]3 [Dd]3 | ^c3- c2 d edc | [F-Ad]3 [FA]3 def | [A^ce]3 [Ac]3 de^f | %206
 [Gdg]2 [Be] [Ac=f]2 [A^ce] [Ad]2 [GBd] | [Be-]3 ed^c c2 e | [FAd]2 [EBd] [EA^c]3- [EAc]2 [EAc] | %209
 [FAd]3 (de)f (de)f | [Gdg]3 [Bd]3 z3 | [G^c]3 [GBe]3 z3 | [FBf]3 [GBe]3 [GBe]3 | %213
 [EAe]3 ed^c [GAc]2 [GAe] | [FAd]2 [EBd] [FAd]3 [EEA^c]3 |1 [FAd]3 z [FA]2 [DFB]2 [EBc] :|2 %216
 [FAd]6 z3 |] %217
V:4
 x4 A2 x4 A2 | x12 | x2 [d^f]2 d2 x2 (B3 A) | x2 [ce]2 c2 x2 [Ac]4 | x10 [FA]2 | ([Bd]e) [EA]4 x6 | %6
 x4 A2 x4 A2 | x12 | x2 [d^f]4 x2 (B3 A) | x2 [ce]4 x2 [Ac]4 | x12 | x12 | x6 d4 x2 | x6 c4 x2 | %14
 (F2 G2) x2 (G2 A2) x2 | x12 | x6 AG x4 | x12 | x10 [=Be]2 | [ce]2 x10 | x4 c2 x4 c2 | x12 | %22
 x2 [GB]4 x4 cA | x12 | x12 | (G/A/)=B Bddg [Gc]2 x4 | (F/G/)A Accf [F_B]2 x4 | G4 x8 | %28
 [FAc]2 x10 | x12 | A4 x6 [DG]2 | x4 (F3 E) x4 | x4 F2 x6 | x6 (F2 G2) x2 | [EA]2 x4 A2 x2 d.f | %35
 A2 x4 A2 x2 [Ad]2 | x4 (GA) [Bd]2 x2 BA | x12 | x2 E4 x6 |][M:2/4] x4 [GB]2 x2 | x2 AB c3 x | %41
 [GB]2 df [GB]2 df | [GA]2 [FA]2 x4 | x8 | G2 x4 [A^c]>[B=c] | x2 c[Bd] x (A/G/)A x | %46
 cA [Gc]2 x c2 x | x8 | x8 | x [Bc]2 x2 F2 x | x [Bc]2 x AB c[Bd] | [Bc] x c2 x2 [Bd][Gc] | %52
 [Ac][Gd] [Gc]2 x4 | x8 | x8 | z4 x2 [Bd][Gc] | [Ac][Gd] [Gc]2 x4 | x2 c[Ad] B2 AB | %58
 x2 c[Ad] c3 x | x2 cA x2 cA | dc x6 | x8 | [Bc]2 x6 | x4 [c_e]4 | [cd]4 x2 [Bd]2 | x8 | x5 A2 x | %67
 x8 | x8 | x8 | x8 | x4 ec e2 | A2 =B x A x3 | x2 A x [GB] x3 | [FA]2 G2 FA FG | x8 | AF A2 x4 | %77
 x4 G2 x2 | x2 AB c3 x | G2 df x2 df | [GA]2 [FA]2 x4 | x8 | G2 x6 | AB E2 A2 x2 | %84
 AB [Bd][A^c] [Ad]2 [=ca][A^f] | GB x2 ef c2 | FA x2 d_e x2 | x8 | x8 | x8 | x8 | %91
 [FA]G A[GB] [FA]G A[GB] | A[GB] x6 | [FA]G A[GB] A[GB] x2 | x8 |][M:6/8] x6 | x4 B2 | x6 | x6 | %99
 x6 | x6 | x4 d2 | x6 | x6 | x [df]4 x | x6 | x6 | x6 | x4 ([Fc][G=B]) | x6 | x G2 x3 | x3 D2 x | %112
 x6 | FG x4 | x3 Bc x | x6 | x6 | x6 | x6 | x3 (FA) x | x A2 x3 | x4 [FG]2 | x F2 x3 | x4 [Bc]2 | %124
 x B2 x3 | x4 c2 | x6 | x6 | x6 | x3 [FB]3 | x G2 x3 | x6 | [Gc]3 [Gc]2 x | x F2 x3 | x [Gc]2 x3 | %135
 x c2 x3 | x6 | x3 [Gc]2 x | x6 | x2 [Bd]2 x2 | x3 [Gc]2 x | x6 | x6 | x6 |][M:6/8] x9 | %145
 ([FA]3 [DG]3) x3 | x9 | [Ac]6 x3 | x3 [Ad]6 | x3 [Fd]6 | x9 | x9 | x9 | [FA]3- [FA]2 G x3 | x9 | %155
 x9 | x9 | x9 | x9 | x3 c3 [Bc]3 | x9 | [Gc]3- [Gc]3 [Gc]3 | x9 | x9 | x3 [Bc]3 [Bc]3 | x9 | %166
 G3 x6 | x3 F3 F3 | x9 | x9 | x9 | x9 | x9 | x4 F2 x3 :: x9 | x9 | x9 | x9 | x9 | x9 | x9 | %181
 c3- [cd]3- [cd]2 [cd] | x9 | F3 x6 | x3 [^G=B]5 x | x9 | x9 | x9 | x9 | x3 [Ae]3 x3 | x9 | %191
 ([FA]3 [DG]3) x3 | x9 | [Ac]6 x3 | x3 [Ad]6 | x3 [Fd]6 | x9 | x9 | x9 | [FA]3- [FA]2 x E2 E | x9 | %201
 x9 | x6 A2 G | [EA]6 [EA]3 | x6 [Ad]3 | x6 [Ad]3 | x9 | G3- [GA]3- [GA]2 [GA] | x9 | %209
 x3 [Ad]3 [Ad]3 | x9 | x9 | x9 | x3 [GB]3 x3 | x9 |1 x9 :|2 x9 |] %217
V:5
 D .F2 E(D^C) D .F2 E(DC) | !wedge!D2 !wedge!A,2 !wedge!B,2 A,4 z2 | %2
 (^F,/G,/)A, D,DD,C (B,/A,/)B, G,D,B,,G,, | E,/F,/G, C,CC,B, A,/G,/A, F,C,A,,F,, | %4
 (B,A,)(G,F,)(E,D,) T^C,3 ^C D2 | G,2 A,2 A,,2 D,4 z2 | D F2 E(D^C) D F2 E(DC) | %7
 !wedge!D2 !wedge!A,2 !wedge!B,2 A,4 z2 | ^F,/G,/A, D,DD,C B,/A,/B, G,D,B,,G,, | %9
 (E,/F,/)G, C,CC,B, (A,/G,/)A, F,C,A,,F,, | B,2 G,2 A,2 F,2 D,2 E,2 | F,4 G,2 (.A,2 .A,,2) ^C2 | %12
 D2 z2 ^F,2 G,4 z2 | C2 z2 E,2 F,4 z2 | (B,2 G,2) G,2 (C2 A,2) A,2 | %15
 (DC)(B,A,)(G,F,) (B,A,)(G,F,)(E,D,) | C,2 C2 F2 B,2 C2 C,2 | F,2 z2 F2 ^G,4 A,2 | %18
 (D,2 E,2) F,2 E,4 ^G,2 | A,2 (.E2 .E,2) A,,4 z2 | %20
 F, !tenuto!A,2 G,(F,E,) F, !tenuto!A,2 G,(F,E,) | F,2 F,2 G,2 A,2 F,2 G,2 | %22
 A,2 (G,2 C2) F,3 G,A,F, | B,2 G,2 A,2 B,2 G,2 A,2 | B,2 (A,2 D2) G,4 z2 | %25
 (=B,/C/)D G,GG,F (E/D/)E CG,E,C, | A,/B,/C F,FF,_E D/C/D B,F,D,B,, | (G,2 B,2) G,2 C2 z2 E2 | %28
 (F,2 A,2) F,2 B,2 z2 D2 | E,2 G,2 E,2 A,2 ^C2 A,2 | (D2 D,2) C,2 B,,.B, (B,/A,/)B, G,B, | %31
 A,3 ^C D2 G,2 A,2 A,,2 | D,.F, (F,/E,/)F, D,F, G,2 z2 F,2 | G,2 z2 F,2 (B,A,)(G,F,)(E,D,) | %34
 (^C,/D,/)E, A,,A,A,,G, (F,/E,/)F, D,A,F,D, | (^C,/D,/)E, A,,A,A,,G, (F,/E,/)F, D,A,F,D, | %36
 z2 (DC)(B,A,) (G,^F,) (B,A,)(G,=F,) | (E,G,)(B,G,)(E,G,) A,,3 ^CDE | %38
 !wedge!F,2 !wedge!G,2 !wedge!A,2 D,6 |][M:2/4] D_EFD B,CA,_E, | F,FDB, C(F,/G,/) A,B, | %41
 G,E F,D G,E F,D | ^CA,DD, A,2 z G, | F,2 z F ^C^C,D,D | E^CDD, A,,(A,/G,/) (A,/B,/A,/).G,/ | %45
 F,G,A,B, A,(F/E/) F(A,/G,/) | A,F,E,C, F,(F/E/) FD | (.G.G,) z G, (.C.C,) z E | %48
 (.F.F,) z A, (.B,.B,,) z D | C(C,/D,/) E,C, z (A,/G,/) A,F, | z (E,/D,/ E,)C, F,G,A,B, | %51
 CDEF GFEE, | F,B,CC, F,2 z2 | D,2 z2 A,,2 z2 | D,C,B,,B, A,(F,/G,/) A,B, | C,CB,A, G,F,E,E | %56
 FB,CC, F,2 (.F,.G,) | A,G,A,F, G,C,F,G, | A,G,A,F, E,(F,/E,/) F,D | B,GA,F B,GA,F | %60
 G,EFF, C2 z B, | A,2 z F, E,EFF, | E,C,F,F,, C,(C/=B,/) C(A,/G,/) | ^F,2 z2 F,F,/G,/ A,G, | %64
 ^F,D,F,D, G,2 G,=F, | E,2 z2 E,2 z2 | E,2 z ^G, A,C/=B,/ CA, | D2 z D C2 z C | %68
 =B,D/C/ B,A, ^G,E,E,E, | z E,E,E, E,2 z ^G, | A,2 z2 A,C/D/ C=B, | A,2 z =B, CA,ED | %72
 CC,D,E, A,C/A,/ DC | B,B,,C,D, G,B,/G,/ CB, | A,DB,C A,F,B,G, | CC,CF, B,B,, B,A,/G,/ | %76
 F,D,^C,D, A,A,,A,G, | F,F/E/ FD B,CA,E, | F,FDB, CF,/G,/ A,B, | G,EF,D G,EF,D | ^CA,DD, A,2 z G, | %81
 F,2 z D ^C^C,D,D | E^CDD, A,G,F,E, | F,B,G,A, F,2 z E, | F,B,G,A, D,E,^F,D | B,G, z =B, C,D,E,C | %86
 A,F, z A, B,,C,D,D | ^CC=CC =B,B,_B,B, | F,2 z B, F,2 z F, | E,G,/F,/ E,D, ^C,A,,A,,A,, | %90
 z A,,A,,A,, A,,2 z ^C, | D,E,F,G, D,E,F,G, | F,G,A,B, A,G,A,A,, | D,E,F,G, F,G,A,B, | %94
 A,G,A,A,, D,2 z2 |][M:6/8] F,2 E, (F,G,)A, | G,2 C, F,(G,C,) | F,2 E, (F,G,)A, | G,(E,F,) C,2 D, | %99
 E,2 F, C2 z | A,2 G, ^F,2 E, | D,2 z2 DD, | G,2 z B,2 A, | G,2 F, E,2 z | z EE, A,2 z | %105
 A,A,A, G,G,G, | F,F,F, E,E,E, | A,2 =B, (CD)E | D2 G, C(DG,) | C2 =B, (CD)E | D(=B,C) G,2 A, | %111
 =B,2 C (F,G,)E, | F,(G,G,,) C,(CB,) | A,G,F,- F, E,2 | F,(F_E) DCB,- | B, A,2 B, z D, | %116
 G, z C, F, z B,, | _E,E,=E, F,F,F, | F,F,F, F,F,F, | G,(CB,) (A,F,)B, | _E,(F,F,,) B,,2 z | %121
 z3 A,(=B,G,) | C(DG,) C2 z | z3 D,(E,C,) | F,(G,C,) F,2 E, | (F,G,)A, G,(E,F,) | C,2 D, E,2 F, | %127
 C,(CB,) A,(F,G,) | A,2 z F,2 z | z z F, B,(B,/C/D/C/) | =B,(G,A,) B,2 z | G,2 z z z G, | %132
 C(C/D/E/D/) C2 B, | A,(A,/F,/G,/A,/) B,(G,F,) | E,(E,/C,/D,/E,/) F,(A,G,) | F,(E,F,) (CB,)A, | %136
 B,(CC,) F,3- | F,(G,F,) (E,D,)C,- | C, =B,,2 C,CA, | D z G, C z F, | %140
 B,/(D/4C/4) B,/A,/G,/F,/ (E,/D,/)C,C, | z C,C, z C,C, | G,2 F, E,EF | B,CC, F,3 |] %144
[M:6/8] D,3 D3 C3 | B,3 z3 z3 | E,3 C,3 B,3 | A,3 z3 z3 | G,3 F,3 D,3 | ^C,3 D,3 B,3 | %150
 G,3 A,3 ^C,3 | D,3 F,3 D,3 | G,3 A,3 ^C,3 | D,3- D,2 E, F,2 D, | G,3 z3 (=B,A,)G, | C3 C,3 E,3 | %156
 F,3 z3 (A,G,)F, | B,3 B,,3 D,3 | (E,D,)E, (F,E,)F, (G,F,)G, | C,3- C,2 D, (E,D,)C, | %160
 F,3- F,2 G, (A,G,)F, | C3- C2 D (ED)C | (F,E,)F, (G,F,)G, (A,G,)A, | B,3 G,3 z3 | %164
 E,3- (E,F,)G, (C,D,)E, | F,3 A,3 D3 | C2 B, C3 C,3 | (F,G,)A, (A,G,)F, (A,G,)F, | =B,,3 z3 z3 | %169
 D,3 z3 z3 | C,3 C,3 C,3 | C,2 C B,2 C D2 E | F2 B, C3 C,3 | F,3 z (A,G,) (F,G,)E, :: F,3 F3 _E3 | %175
 D3 z3 z3 | ^F,3 F,3 D,3 | G,3- G,2 G, (B,A,)G, | D3 z3 z3 | D3 z3 z3 | D3 D3 D3 | %181
 (^F,A,)G, (F,G,)A, D,2 F, | G,2 C D2 D, D2 C | (=B,C)A, (^G,A,)B, E,2 G, | A,2 D E2 D E2 E, | %185
 D3 C3 =B,3 | (A,^G,)A, (=B,A,)B, (CB,)C | D3 C3 =B,3 | A,3 z2 C, D,2 E, | A,,3 A,2 G, F,2 E, | %190
 D,3 D3 C3 | B,3 z3 z3 | E,3 C,3 B,3 | A,3 z3 z3 | G,3 F,3 D,3 | ^C,3 D,3 B,3 | G,3 A,3 ^C,3 | %197
 D,3 F,3 D,3 | G,3 A,3 ^C,3 | D,3- D,2 D ^C2 A, | D3 G,3 F,3 | (G,A,)G, (F,G,)F, (E,F,)E, | %202
 D,3 A,3 B,3 | A,3- A,2 =B, (^CB,)A, | D3- D2 E (FE)D | A,3- A,2 G, (^F,E,)D, | %206
 B,2 G, A,2 G, F,2 G, | (^C,E,)D, (C,D,)E, A,,2 C, | D,2 G, A,2 G, A,2 A,, | %209
 (D,E,)F, (F,E,)D, (F,E,)D, | B,3 G,3 z3 | E,3 ^C,3 z3 | D,3 E,3 D,3 | ^C,3- (C,D,)E, A,,2 ^C | %214
 D2 G, A,3 A,,3 |1 D,3 z (DC) (B,A,)G, :|2 D,6 z3 |] %217
V:6
 x12 | x12 | x12 | x12 | x12 | x12 | x12 | x12 | x12 | x12 | x12 | x12 | x12 | x12 | x12 | x12 | %16
 x12 | x12 | x12 | x12 | x12 | x12 | x12 | x12 | x12 | x12 | x12 | x12 | x12 | x12 | x12 | %31
 x4 A2 B2 x4 | x12 | x12 | x12 | x12 | x12 | x12 | x12 |][M:2/4] x8 | x8 | x8 | x8 | x8 | x8 | x8 | %46
 x8 | x8 | x8 | x8 | x8 | x8 | x8 | x8 | x8 | x8 | x8 | x8 | x8 | x8 | x8 | x8 | x8 | x8 | x8 | %65
 x8 | x8 | x8 | x8 | x8 | x8 | x8 | x8 | x8 | x8 | x8 | x8 | x8 | x8 | x8 | x8 | x8 | x8 | x8 | %84
 x8 | x8 | x8 | x8 | x8 | x8 | x8 | x8 | x8 | x8 | x8 |][M:6/8] x6 | x6 | x6 | x6 | x6 | x6 | x6 | %102
 x6 | x6 | x6 | x6 | x6 | x6 | x6 | x6 | x6 | x6 | x6 | x6 | x6 | x6 | x6 | x6 | x6 | x6 | x6 | %121
 x6 | x6 | x6 | x6 | x6 | x6 | x6 | x6 | x6 | x6 | x6 | x6 | x6 | x6 | x6 | x6 | x6 | x6 | x6 | %140
 x6 | x6 | x6 | x6 |][M:6/8] x9 | x9 | x9 | x9 | x9 | x9 | x9 | x9 | x9 | x9 | x9 | x9 | x9 | x9 | %158
 x9 | x9 | x9 | x9 | x9 | x9 | x9 | x9 | x9 | x9 | x9 | x9 | x9 | x9 | x9 | x9 :: x9 | x9 | x9 | %177
 x9 | x9 | x9 | x9 | x9 | x9 | x9 | x9 | x9 | x9 | x9 | x9 | x9 | x9 | x9 | x9 | x9 | x9 | x9 | %196
 x9 | x9 | x9 | x9 | x9 | x9 | x9 | x9 | x9 | x9 | x9 | x9 | x9 | x9 | x9 | x9 | x9 | x9 | x9 |1 %215
 x9 :|2 x9 |] %217

